public/assets/images/2.svg

<svg height="24" viewBox="0 0 24 24" width="24" xmlns="http://www.w3.org/2000/svg"><path d="m12.305085 2.5042373c-4 0-8 .5-8 4v9.5000007a3.5 3.5 0 0 0 3.5 3.5l-1.5 1.5v.5h2.23l2-2h3.77l2 2h2v-.5l-1.5-1.5a3.5 3.5 0 0 0 3.5-3.5v-9.5000007c0-3.5-3.58-4-8-4m-4.5 15.0000007a1.5 1.5 0 0 1 -1.5-1.5 1.5 1.5 0 0 1 1.5-1.5 1.5 1.5 0 0 1 1.5 1.5 1.5 1.5 0 0 1 -1.5 1.5m3.5-7h-5v-4.0000007h5zm2 0v-4.0000007h5v4.0000007zm3.5 7a1.5 1.5 0 0 1 -1.5-1.5 1.5 1.5 0 0 1 1.5-1.5 1.5 1.5 0 0 1 1.5 1.5 1.5 1.5 0 0 1 -1.5 1.5z"/><path d="m12.305085 2.5042373c-4 0-8 .5-8 4v9.5000007c0 1.932997 1.567003 3.5 3.5 3.5l-1.5 1.5v.5h2.23l2-2h3.77l2 2h2v-.5l-1.5-1.5c1.932997 0 3.5-1.567003 3.5-3.5v-9.5000007c0-3.5-3.58-4-8-4" fill="#f9f9f9" stroke="#fff"/><path d="m12.305085 2.5042374c-4 0-8 .5-8 4v9.5000006a3.5 3.5 0 0 0 3.5 3.5l-1.5 1.5v.5h2.23l2-2h3.77l2 2h2v-.5l-1.5-1.5a3.5 3.5 0 0 0 3.5-3.5v-9.5000006c0-3.5-3.58-4-8-4m-4.5 15.0000006a1.5 1.5 0 0 1 -1.5-1.5 1.5 1.5 0 0 1 1.5-1.5 1.5 1.5 0 0 1 1.5 1.5 1.5 1.5 0 0 1 -1.5 1.5m3.5-7h-5v-4.0000006h5zm2 0v-4.0000006h5v4.0000006zm3.5 7a1.5 1.5 0 0 1 -1.5-1.5 1.5 1.5 0 0 1 1.5-1.5 1.5 1.5 0 0 1 1.5 1.5 1.5 1.5 0 0 1 -1.5 1.5z" fill="#800080"/><g fill="#fff" transform="translate(.440678 .5)"><path d="m9.6092868 12.157332h1.3636362v1.378299h-1.3636362z"/><path d="m11.442131 12.157332h1.363637v1.378299h-1.363637z"/><path d="m13.24565 12.157332h1.363637v1.378299h-1.363637z"/><circle cx="11.156642" cy="14.61291" r=".740904"/><circle cx="13.092126" cy="14.61291" r=".740904"/></g></svg>

<?xml version="1.0" encoding="UTF-8" standalone="no"?>
<!DOCTYPE svg PUBLIC "-//W3C//DTD SVG 1.1//EN" "http://www.w3.org/Graphics/SVG/1.1/DTD/svg11.dtd">
<svg width="100%" height="100%" viewBox="0 0 24 24" version="1.1" xmlns="http://www.w3.org/2000/svg" xmlns:xlink="http://www.w3.org/1999/xlink" xml:space="preserve" xmlns:serif="http://www.serif.com/" style="fill-rule:evenodd;clip-rule:evenodd;">
    <path d="M12.305,2.504C8.305,2.504 4.305,3.004 4.305,6.504L4.305,16.004C4.305,17.924 5.885,19.504 7.805,19.504L6.305,21.004L6.305,21.504L8.535,21.504L10.535,19.504L14.305,19.504L16.305,21.504L18.305,21.504L18.305,21.004L16.805,19.504C18.725,19.504 20.305,17.924 20.305,16.004L20.305,6.504C20.305,3.004 16.725,2.504 12.305,2.504M7.805,17.504C6.982,17.504 6.305,16.827 6.305,16.004C6.305,15.181 6.982,14.504 7.805,14.504C8.628,14.504 9.305,15.181 9.305,16.004C9.305,16.827 8.628,17.504 7.805,17.504M11.305,10.504L6.305,10.504L6.305,6.504L11.305,6.504L11.305,10.504ZM13.305,10.504L13.305,6.504L18.305,6.504L18.305,10.504L13.305,10.504ZM16.805,17.504C15.982,17.504 15.305,16.827 15.305,16.004C15.305,15.181 15.982,14.504 16.805,14.504C17.628,14.504 18.305,15.181 18.305,16.004C18.305,16.827 17.628,17.504 16.805,17.504Z" style="fill-rule:nonzero;"/>
    <path d="M12.305,2.504C8.305,2.504 4.305,3.004 4.305,6.504L4.305,16.004C4.305,17.937 5.872,19.504 7.805,19.504L6.305,21.004L6.305,21.504L8.535,21.504L10.535,19.504L14.305,19.504L16.305,21.504L18.305,21.504L18.305,21.004L16.805,19.504C18.738,19.504 20.305,17.937 20.305,16.004L20.305,6.504C20.305,3.004 16.725,2.504 12.305,2.504" style="fill:rgb(249,249,249);fill-rule:nonzero;stroke:white;stroke-width:3px;"/>
    <path d="M12.305,2.504C8.305,2.504 4.305,3.004 4.305,6.504L4.305,16.004C4.305,17.924 5.885,19.504 7.805,19.504L6.305,21.004L6.305,21.504L8.535,21.504L10.535,19.504L14.305,19.504L16.305,21.504L18.305,21.504L18.305,21.004L16.805,19.504C18.725,19.504 20.305,17.924 20.305,16.004L20.305,6.504C20.305,3.004 16.725,2.504 12.305,2.504M7.805,17.504C6.982,17.504 6.305,16.827 6.305,16.004C6.305,15.181 6.982,14.504 7.805,14.504C8.628,14.504 9.305,15.181 9.305,16.004C9.305,16.827 8.628,17.504 7.805,17.504M11.305,10.504L6.305,10.504L6.305,6.504L11.305,6.504L11.305,10.504ZM13.305,10.504L13.305,6.504L18.305,6.504L18.305,10.504L13.305,10.504ZM16.805,17.504C15.982,17.504 15.305,16.827 15.305,16.004C15.305,15.181 15.982,14.504 16.805,14.504C17.628,14.504 18.305,15.181 18.305,16.004C18.305,16.827 17.628,17.504 16.805,17.504Z" style="fill:rgb(128,0,128);fill-rule:nonzero;"/>
    <g transform="matrix(1,0,0,1,0.440678,0.5)">
        <rect x="9.609" y="12.157" width="1.364" height="1.378" style="fill:white;fill-rule:nonzero;"/>
        <rect x="11.442" y="12.157" width="1.364" height="1.378" style="fill:white;fill-rule:nonzero;"/>
        <rect x="13.246" y="12.157" width="1.364" height="1.378" style="fill:white;fill-rule:nonzero;"/>
        <circle cx="11.157" cy="14.613" r="0.741" style="fill:white;"/>
        <circle cx="13.092" cy="14.613" r="0.741" style="fill:white;"/>
    </g>
</svg>
